X:40
T: Visitors [The]
R: jig
M: 6/8
L: 1/8
C: J.Derrane
D: "The Tie That Binds" [Shanachie]
Z: B.Black
K: D
A|def edc|dcd FGA|=cde dcA|GED =C2E|
DFA GBd|Ace gfe|fed cBA|GEA D2 :|
d|fdc dfa|baf afd|gfg Bed|cBc Aag|
fce dAB|=cE=F Gce|dcd BAF|GEA D2 :|
